svgs/sharp-light/uniform-martial-arts.svg

<svg xmlns="http://www.w3.org/2000/svg" viewBox="0 0 640 512"><!--! Font Awesome Pro 6.6.0 by @fontawesome - https://fontawesome.com License - https://fontawesome.com/license (Commercial License) Copyright 2024 Fonticons, Inc. --><path d="M123.6 0l-9.5 0-4.6 8.3L2 204l-2 3.6 0 4.1L0 400l0 16 16 0 96 0 16 0 0-16 0-16 0-96 0-47.6 32-58.2L160 288l32 0 0-168-30-7.7L98 228.6l-2 3.6 0 4.1L96 384l-64 0 0-168.2L133.1 32l97 0 72 144-56 112 35.8 0 52.4-104.8L409.9 32l97 0L608 215.8 608 384l-64 0 0-147.7 0-4.1-2-3.6L478 112.3 448 120l0 168 32 0 0-105.7 32 58.2 0 47.6 0 96 0 16 0 16 16 0 96 0 16 0 0-16 0-188.3 0-4.1-2-3.6L530.4 8.3 525.8 0l-9.5 0L400 0l-9.9 0L249.9 0 240 0 123.6 0zM265.9 32l108.2 0L320 140.2 265.9 32zM480 384l-32 0 0 96-256 0 0-96-32 0 0 112 0 16 16 0 288 0 16 0 0-16 0-112zM144 320l0 32 16 0 130.1 0-47.4 71.1-8.9 13.3 26.6 17.8 8.9-13.3 50.7-76 50.7 76 8.9 13.3 26.6-17.8-8.9-13.3L349.9 352 480 352l16 0 0-32-16 0-160 0-160 0-16 0z"/></svg>

<svg xmlns="http://www.w3.org/2000/svg" viewBox="0 0 640 512"><!--! Font Awesome Pro 6.4.2 by @fontawesome - https://fontawesome.com License - https://fontawesome.com/license (Commercial License) Copyright 2023 Fonticons, Inc. --><path d="M123.6 0h-9.5l-4.6 8.3L2 204l-2 3.6v4.1V400v16H16h96 16V400 384 288 240.4l32-58.2V288h32V120l-30-7.7L98 228.6l-2 3.6v4.1V384H32V215.8L133.1 32h97l72 144-56 112h35.8l52.4-104.8L409.9 32h97L608 215.8V384H544V236.3v-4.1l-2-3.6L478 112.3 448 120V288h32V182.3l32 58.2V288v96 16 16h16 96 16V400 211.7v-4.1l-2-3.6L530.4 8.3 525.8 0h-9.5H400h-9.9H249.9 240 123.6zM265.9 32H374.1L320 140.2 265.9 32zM480 384H448v96H192V384H160V496v16h16H464h16V496 384zM144 320v32h16H290.1l-47.4 71.1-8.9 13.3 26.6 17.8 8.9-13.3 50.7-76 50.7 76 8.9 13.3 26.6-17.8-8.9-13.3L349.9 352H480h16V320H480 320 160 144z"/></svg>
